X:1
T:Brighton Camp
O:Stanton Harcourt
R:reel
M:4/4
L:1/4
K:G
g | e d/c/ B G/G/ | B G E D/D/ | G G G/A/B/c/ | d2 B g | 
d c B G/G/ | B G E G | F D D E/F/ | G2 G |] 
d/d/ | B d e f | g d/d/ B d/c/ | B d e f | g2 f g | 
e d/d/ B G/G/ | B G E G | F A D E/F/ | G2 G |]
